logos/assembla-icon.svg

<?xml version="1.0" encoding="UTF-8"?>
<svg width="256px" height="284px" viewBox="0 0 256 284" version="1.1" xmlns="http://www.w3.org/2000/svg" xmlns:xlink="http://www.w3.org/1999/xlink"  preserveAspectRatio="xMidYMid">
    <title>Assembla</title>
    <g>
        <path d="M232.042974,53.0016307 L151.19706,5.88373417 C143.793611,1.77321835 135.41411,-0.252869838 126.950523,0.0211387485 C118.450188,-0.164302231 110.046786,1.85550659 102.559231,5.88373417 L22.9437376,53.0016307 C8.9749402,62.4437389 0.428849509,78.0531601 0,94.9083313 L0,188.999369 C0.461673979,205.881352 9.06465208,221.496161 23.0884931,230.906069 L103.283008,278.023966 C110.527024,282.072628 118.726945,284.097608 127.022901,283.886561 C135.325932,284.163889 143.54337,282.134582 150.762793,278.023966 L231.608708,231.050825 C245.676498,221.506404 254.649235,206.090337 256,189.144124 L256,95.0530867 C255.579481,77.9031368 246.581221,62.1086066 232.042974,53.0016307 Z M185.286966,189.144124 C184.544949,189.651326 183.64839,189.88187 182.753746,189.795524 C180.607351,189.628444 178.670375,188.444736 177.54255,186.610904 L145.47922,121.977599 L113.415889,186.466149 C112.334203,188.34558 110.370619,189.545548 108.204693,189.650768 C107.553294,189.650768 106.178117,189.650768 105.671473,188.999369 C102.797295,187.437266 101.729033,183.844022 103.283008,180.965442 L139.471869,109.311498 L127.240034,84.9202058 L76.5756291,186.828037 C75.136597,189.646141 71.6855061,190.7641 68.8674018,189.325068 C66.0492975,187.886036 64.9313385,184.434946 66.3703704,181.616841 L121.95646,69.7208843 C122.745221,67.5796365 124.90237,66.2613789 127.167656,66.5362646 C129.350551,66.5850302 131.339664,67.8005992 132.378852,69.7208843 L145.551597,96.9349075 L151.993215,109.094365 L188.182075,181.472086 C189.422867,184.392174 188.147563,187.771729 185.286966,189.144124 Z" fill="#263238"></path>
    </g>
</svg>

<svg preserveAspectRatio="xMidYMid" viewBox="0 0 256 284" xmlns="http://www.w3.org/2000/svg">
  <path fill="#263238" d="M232.043 53.002 151.197 5.884A46.828 46.828 0 0 0 126.951.02a49.217 49.217 0 0 0-24.392 5.863L22.944 53.002A52.184 52.184 0 0 0 0 94.908V189a52.184 52.184 0 0 0 23.088 41.907l80.195 47.118a46.25 46.25 0 0 0 23.74 5.863 44.947 44.947 0 0 0 23.74-5.863l80.846-46.973A56.02 56.02 0 0 0 256 189.144v-94.09a51.099 51.099 0 0 0-23.957-42.052Zm-46.756 136.142a3.836 3.836 0 0 1-2.533.652 6.731 6.731 0 0 1-5.211-3.185l-32.064-64.633-32.063 64.488a6.37 6.37 0 0 1-5.211 3.185c-.652 0-2.027 0-2.534-.652a5.935 5.935 0 0 1-2.388-8.034l36.189-71.654-12.232-24.39-50.664 101.907a5.73 5.73 0 0 1-10.206-5.211L121.956 69.72a4.922 4.922 0 0 1 5.212-3.185 6.08 6.08 0 0 1 5.21 3.185l13.174 27.214 6.441 12.16 36.19 72.377a5.935 5.935 0 0 1-2.896 7.672Z"/>
</svg>
